public/assets/Sponsors/past/hyperDart.svg

<svg width="1405" height="272" fill="none" xmlns="http://www.w3.org/2000/svg"><path d="M81.648 57.04c19.008 0 32.16 5.856 39.456 17.568 7.296 11.52 10.944 27.552 10.944 48.096v73.728c0 4.992-1.632 9.216-4.896 12.672-3.264 3.264-7.392 4.896-12.384 4.896s-9.12-1.632-12.384-4.896c-3.264-3.456-4.896-7.68-4.896-12.672v-73.728c0-10.56-2.112-18.816-6.336-24.768-4.032-6.144-11.232-9.216-21.6-9.216-10.752 0-19.2 3.264-25.344 9.792-5.952 6.336-8.928 14.4-8.928 24.192v73.728c0 4.992-1.632 9.216-4.896 12.672C27.12 212.368 22.992 214 18 214s-9.12-1.632-12.384-4.896C2.352 205.648.72 201.424.72 196.432V18.448c0-4.992 1.632-9.12 4.896-12.384C8.88 2.608 13.008.88 18 .88s9.12 1.728 12.384 5.184c3.264 3.264 4.896 7.392 4.896 12.384v63.648c5.184-6.912 11.712-12.768 19.584-17.568 8.064-4.992 16.992-7.488 26.784-7.488ZM282.4 59.92c4.992 0 9.12 1.728 12.384 5.184 3.264 3.264 4.896 7.392 4.896 12.384v122.4c0 24.96-6.72 43.104-20.16 54.432-13.44 11.52-31.392 17.28-53.856 17.28-6.528 0-13.248-.576-20.16-1.728-6.72-.96-12.192-2.304-16.416-4.032-9.408-4.032-14.112-9.6-14.112-16.704 0-1.344.288-2.88.864-4.608 1.152-4.224 3.072-7.488 5.76-9.792 2.88-2.112 5.952-3.168 9.216-3.168 1.92 0 3.744.288 5.472.864 1.344.576 3.648 1.536 6.912 2.88a68 68 0 0 0 10.656 3.168 48.5 48.5 0 0 0 11.808 1.44c13.632 0 23.616-2.976 29.952-8.928 6.528-5.76 9.792-15.744 9.792-29.952v-2.88c-9.984 12.48-25.536 18.72-46.656 18.72-9.984 0-18.816-2.304-26.496-6.912-7.68-4.8-13.632-11.328-17.856-19.584-4.224-8.448-6.336-18.048-6.336-28.8V77.488c0-4.992 1.632-9.12 4.896-12.384 3.264-3.456 7.392-5.184 12.384-5.184s9.12 1.728 12.384 5.184c3.264 3.264 4.896 7.392 4.896 12.384v73.728c0 12.096 2.592 20.832 7.776 26.208 5.376 5.184 13.152 7.776 23.328 7.776 9.984 0 17.664-2.88 23.04-8.64 5.568-5.952 8.352-14.4 8.352-25.344V77.488c0-4.992 1.632-9.12 4.896-12.384 3.264-3.456 7.392-5.184 12.384-5.184Zm134.471-2.88c13.248 0 25.248 3.456 36 10.368 10.752 6.72 19.2 16.128 25.344 28.224 6.336 12.096 9.504 25.824 9.504 41.184 0 15.36-3.072 29.184-9.216 41.472-6.144 12.096-14.592 21.6-25.344 28.512-10.56 6.72-22.272 10.08-35.136 10.08-9.216 0-17.952-1.824-26.208-5.472-8.064-3.84-14.784-8.448-20.16-13.824v56.448c0 4.992-1.632 9.12-4.896 12.384-3.264 3.456-7.392 5.184-12.384 5.184s-9.12-1.632-12.384-4.896c-3.264-3.264-4.896-7.488-4.896-12.672V77.488c0-4.992 1.632-9.12 4.896-12.384 3.264-3.456 7.392-5.184 12.384-5.184s9.12 1.728 12.384 5.184c3.264 3.264 4.896 7.392 4.896 12.384v1.152c4.608-5.76 11.04-10.752 19.296-14.976 8.256-4.416 16.896-6.624 25.92-6.624Zm-4.32 128.16c12.288 0 22.368-4.608 30.24-13.824 7.872-9.216 11.808-20.736 11.808-34.56 0-13.824-3.936-25.248-11.808-34.272-7.68-9.216-17.76-13.824-30.24-13.824-12.48 0-22.656 4.608-30.528 13.824-7.872 9.024-11.808 20.448-11.808 34.272 0 13.824 3.936 25.344 11.808 34.56 7.872 9.216 18.048 13.824 30.528 13.824Zm242.222-51.84c-.192 4.608-2.016 8.352-5.472 11.232-3.456 2.88-7.488 4.32-12.096 4.32h-95.04c2.304 11.328 7.584 20.256 15.84 26.784 8.256 6.336 17.568 9.504 27.936 9.504 7.872 0 14.016-.672 18.432-2.016 4.416-1.536 7.872-3.072 10.368-4.608 2.688-1.728 4.512-2.88 5.472-3.456 3.456-1.728 6.72-2.592 9.792-2.592 4.032 0 7.488 1.44 10.368 4.32 2.88 2.88 4.32 6.24 4.32 10.08 0 5.184-2.688 9.888-8.064 14.112-5.376 4.416-12.576 8.16-21.6 11.232-9.024 3.072-18.144 4.608-27.36 4.608-16.128 0-30.24-3.36-42.336-10.08-11.904-6.72-21.12-15.936-27.648-27.648-6.528-11.904-9.792-25.248-9.792-40.032 0-16.512 3.456-31.008 10.368-43.488 6.912-12.48 16.032-21.984 27.36-28.512 11.328-6.72 23.424-10.08 36.288-10.08 12.672 0 24.576 3.456 35.712 10.368 11.328 6.912 20.352 16.224 27.072 27.936 6.72 11.712 10.08 24.384 10.08 38.016Zm-72.864-44.64c-22.272 0-35.424 10.464-39.456 31.392h75.456v-2.016c-.768-8.064-4.704-14.976-11.808-20.736s-15.168-8.64-24.192-8.64Zm181.75-31.68c5.76 0 10.56 1.632 14.4 4.896 4.032 3.264 6.048 7.104 6.048 11.52 0 5.952-1.536 10.464-4.608 13.536-3.072 2.88-6.72 4.32-10.944 4.32-2.88 0-6.144-.672-9.792-2.016-.576-.192-1.92-.576-4.032-1.152-1.92-.576-4.032-.864-6.336-.864-4.992 0-9.792 1.536-14.4 4.608-4.608 3.072-8.448 7.776-11.52 14.112-2.88 6.144-4.32 13.536-4.32 22.176v68.256c0 4.992-1.632 9.216-4.896 12.672-3.264 3.264-7.392 4.896-12.384 4.896s-9.12-1.632-12.384-4.896c-3.264-3.456-4.896-7.68-4.896-12.672V77.488c0-4.992 1.632-9.12 4.896-12.384 3.264-3.456 7.392-5.184 12.384-5.184s9.12 1.728 12.384 5.184c3.264 3.264 4.896 7.392 4.896 12.384v3.744c4.416-7.872 10.752-13.824 19.008-17.856 8.256-4.224 17.088-6.336 26.496-6.336ZM897.75 12.4c18.048 0 33.504 4.512 46.368 13.536 13.056 8.832 22.944 20.928 29.664 36.288 6.912 15.168 10.368 32.16 10.368 50.976 0 18.816-3.456 35.904-10.368 51.264-6.72 15.168-16.608 27.264-29.664 36.288C931.254 209.584 915.798 214 897.75 214h-68.832c-4.992 0-9.216-1.632-12.672-4.896-3.264-3.456-4.896-7.68-4.896-12.672V29.968c0-4.992 1.632-9.12 4.896-12.384 3.456-3.456 7.68-5.184 12.672-5.184h68.832Zm-2.88 168.48c17.28 0 30.24-6.336 38.88-19.008 8.64-12.864 12.96-29.088 12.96-48.672 0-19.584-4.416-35.712-13.248-48.384-8.64-12.864-21.504-19.296-38.592-19.296h-47.52v135.36h47.52Zm244.18-123.84c4.99 0 9.12 1.632 12.38 4.896 3.27 3.264 4.9 7.488 4.9 12.672v121.824c0 4.992-1.63 9.216-4.9 12.672-3.26 3.264-7.39 4.896-12.38 4.896-4.99 0-9.12-1.632-12.38-4.896-3.08-3.264-4.71-7.392-4.9-12.384-4.8 5.568-11.33 10.368-19.58 14.4-8.07 3.84-16.61 5.76-25.64 5.76-13.24 0-25.24-3.36-36-10.08-10.75-6.912-19.29-16.416-25.63-28.512-6.14-12.096-9.21-25.824-9.21-41.184 0-15.36 3.07-29.088 9.21-41.184 6.15-12.288 14.5-21.792 25.06-28.512 10.75-6.912 22.56-10.368 35.42-10.368 9.22 0 17.86 1.728 25.92 5.184 8.07 3.264 14.88 7.488 20.45 12.672v-.288c0-4.992 1.63-9.12 4.9-12.384 3.26-3.456 7.39-5.184 12.38-5.184Zm-58.18 128.16c12.48 0 22.66-4.512 30.53-13.536 7.87-9.216 11.81-20.736 11.81-34.56 0-13.824-3.94-25.344-11.81-34.56-7.87-9.216-18.05-13.824-30.53-13.824-12.28 0-22.36 4.608-30.24 13.824-7.87 9.216-11.8 20.736-11.8 34.56 0 13.824 3.84 25.344 11.52 34.56 7.87 9.024 18.04 13.536 30.52 13.536Zm192.98-128.16c5.76 0 10.56 1.632 14.4 4.896 4.03 3.264 6.04 7.104 6.04 11.52 0 5.952-1.53 10.464-4.6 13.536-3.08 2.88-6.72 4.32-10.95 4.32-2.88 0-6.14-.672-9.79-2.016-.58-.192-1.92-.576-4.03-1.152-1.92-.576-4.03-.864-6.34-.864-4.99 0-9.79 1.536-14.4 4.608-4.61 3.072-8.45 7.776-11.52 14.112-2.88 6.144-4.32 13.536-4.32 22.176v68.256c0 4.992-1.63 9.216-4.89 12.672-3.27 3.264-7.4 4.896-12.39 4.896s-9.12-1.632-12.38-4.896c-3.27-3.456-4.9-7.68-4.9-12.672V77.488c0-4.992 1.63-9.12 4.9-12.384 3.26-3.456 7.39-5.184 12.38-5.184 4.99 0 9.12 1.728 12.39 5.184 3.26 3.264 4.89 7.392 4.89 12.384v3.744c4.42-7.872 10.75-13.824 19.01-17.856 8.26-4.224 17.09-6.336 26.5-6.336Zm119.11 124.416c2.69 0 5.09 1.344 7.2 4.032 2.31 2.496 3.46 5.856 3.46 10.08 0 5.184-2.88 9.6-8.64 13.248-5.57 3.456-11.91 5.184-19.01 5.184-11.9 0-21.98-2.496-30.24-7.488-8.06-5.184-12.1-16.032-12.1-32.544V94.48h-13.24c-4.61 0-8.45-1.536-11.52-4.608-3.08-3.072-4.61-6.912-4.61-11.52 0-4.416 1.53-8.064 4.61-10.944 3.07-3.072 6.91-4.608 11.52-4.608h13.24V44.368c0-4.992 1.64-9.12 4.9-12.384 3.46-3.456 7.68-5.184 12.67-5.184 4.8 0 8.83 1.728 12.1 5.184 3.26 3.264 4.89 7.392 4.89 12.384V62.8h20.45c4.61 0 8.45 1.536 11.52 4.608 3.07 3.072 4.61 6.912 4.61 11.52 0 4.416-1.54 8.16-4.61 11.232-3.07 2.88-6.91 4.32-11.52 4.32h-20.45v78.048c0 4.032 1.06 7.008 3.17 8.928 2.11 1.728 4.99 2.592 8.64 2.592 1.54 0 3.65-.384 6.34-1.152 2.3-.96 4.51-1.44 6.62-1.44Z" fill="#F05F00"/></svg>

<svg width="1405" height="272" viewBox="0 0 1405 272" fill="none" xmlns="http://www.w3.org/2000/svg">
<path d="M81.648 57.04C100.656 57.04 113.808 62.896 121.104 74.608C128.4 86.128 132.048 102.16 132.048 122.704V196.432C132.048 201.424 130.416 205.648 127.152 209.104C123.888 212.368 119.76 214 114.768 214C109.776 214 105.648 212.368 102.384 209.104C99.12 205.648 97.488 201.424 97.488 196.432V122.704C97.488 112.144 95.376 103.888 91.152 97.936C87.12 91.792 79.92 88.72 69.552 88.72C58.8 88.72 50.352 91.984 44.208 98.512C38.256 104.848 35.28 112.912 35.28 122.704V196.432C35.28 201.424 33.648 205.648 30.384 209.104C27.12 212.368 22.992 214 18 214C13.008 214 8.88 212.368 5.616 209.104C2.352 205.648 0.720001 201.424 0.720001 196.432V18.448C0.720001 13.456 2.352 9.32799 5.616 6.06398C8.88 2.60799 13.008 0.879997 18 0.879997C22.992 0.879997 27.12 2.60799 30.384 6.06398C33.648 9.32799 35.28 13.456 35.28 18.448V82.096C40.464 75.184 46.992 69.328 54.864 64.528C62.928 59.536 71.856 57.04 81.648 57.04ZM282.4 59.92C287.392 59.92 291.52 61.648 294.784 65.104C298.048 68.368 299.68 72.496 299.68 77.488V199.888C299.68 224.848 292.96 242.992 279.52 254.32C266.08 265.84 248.128 271.6 225.664 271.6C219.136 271.6 212.416 271.024 205.504 269.872C198.784 268.912 193.312 267.568 189.088 265.84C179.68 261.808 174.976 256.24 174.976 249.136C174.976 247.792 175.264 246.256 175.84 244.528C176.992 240.304 178.912 237.04 181.6 234.736C184.48 232.624 187.552 231.568 190.816 231.568C192.736 231.568 194.56 231.856 196.288 232.432C197.632 233.008 199.936 233.968 203.2 235.312C206.656 236.656 210.208 237.712 213.856 238.48C217.696 239.44 221.632 239.92 225.664 239.92C239.296 239.92 249.28 236.944 255.616 230.992C262.144 225.232 265.408 215.248 265.408 201.04V198.16C255.424 210.64 239.872 216.88 218.752 216.88C208.768 216.88 199.936 214.576 192.256 209.968C184.576 205.168 178.624 198.64 174.4 190.384C170.176 181.936 168.064 172.336 168.064 161.584V77.488C168.064 72.496 169.696 68.368 172.96 65.104C176.224 61.648 180.352 59.92 185.344 59.92C190.336 59.92 194.464 61.648 197.728 65.104C200.992 68.368 202.624 72.496 202.624 77.488V151.216C202.624 163.312 205.216 172.048 210.4 177.424C215.776 182.608 223.552 185.2 233.728 185.2C243.712 185.2 251.392 182.32 256.768 176.56C262.336 170.608 265.12 162.16 265.12 151.216V77.488C265.12 72.496 266.752 68.368 270.016 65.104C273.28 61.648 277.408 59.92 282.4 59.92ZM416.871 57.04C430.119 57.04 442.119 60.496 452.871 67.408C463.623 74.128 472.071 83.536 478.215 95.632C484.551 107.728 487.719 121.456 487.719 136.816C487.719 152.176 484.647 166 478.503 178.288C472.359 190.384 463.911 199.888 453.159 206.8C442.599 213.52 430.887 216.88 418.023 216.88C408.807 216.88 400.071 215.056 391.815 211.408C383.751 207.568 377.031 202.96 371.655 197.584V254.032C371.655 259.024 370.023 263.152 366.759 266.416C363.495 269.872 359.367 271.6 354.375 271.6C349.383 271.6 345.255 269.968 341.991 266.704C338.727 263.44 337.095 259.216 337.095 254.032V77.488C337.095 72.496 338.727 68.368 341.991 65.104C345.255 61.648 349.383 59.92 354.375 59.92C359.367 59.92 363.495 61.648 366.759 65.104C370.023 68.368 371.655 72.496 371.655 77.488V78.64C376.263 72.88 382.695 67.888 390.951 63.664C399.207 59.248 407.847 57.04 416.871 57.04ZM412.551 185.2C424.839 185.2 434.919 180.592 442.791 171.376C450.663 162.16 454.599 150.64 454.599 136.816C454.599 122.992 450.663 111.568 442.791 102.544C435.111 93.328 425.031 88.72 412.551 88.72C400.071 88.72 389.895 93.328 382.023 102.544C374.151 111.568 370.215 122.992 370.215 136.816C370.215 150.64 374.151 162.16 382.023 171.376C389.895 180.592 400.071 185.2 412.551 185.2ZM654.773 133.36C654.581 137.968 652.757 141.712 649.301 144.592C645.845 147.472 641.813 148.912 637.205 148.912H542.165C544.469 160.24 549.749 169.168 558.005 175.696C566.261 182.032 575.573 185.2 585.941 185.2C593.813 185.2 599.957 184.528 604.373 183.184C608.789 181.648 612.245 180.112 614.741 178.576C617.429 176.848 619.253 175.696 620.213 175.12C623.669 173.392 626.933 172.528 630.005 172.528C634.037 172.528 637.493 173.968 640.373 176.848C643.253 179.728 644.693 183.088 644.693 186.928C644.693 192.112 642.005 196.816 636.629 201.04C631.253 205.456 624.053 209.2 615.029 212.272C606.005 215.344 596.885 216.88 587.669 216.88C571.541 216.88 557.429 213.52 545.333 206.8C533.429 200.08 524.213 190.864 517.685 179.152C511.157 167.248 507.893 153.904 507.893 139.12C507.893 122.608 511.349 108.112 518.261 95.632C525.173 83.152 534.293 73.648 545.621 67.12C556.949 60.4 569.045 57.04 581.909 57.04C594.581 57.04 606.485 60.496 617.621 67.408C628.949 74.32 637.973 83.632 644.693 95.344C651.413 107.056 654.773 119.728 654.773 133.36ZM581.909 88.72C559.637 88.72 546.485 99.184 542.453 120.112H617.909V118.096C617.141 110.032 613.205 103.12 606.101 97.36C598.997 91.6 590.933 88.72 581.909 88.72ZM763.659 57.04C769.419 57.04 774.219 58.672 778.059 61.936C782.091 65.2 784.107 69.04 784.107 73.456C784.107 79.408 782.571 83.92 779.499 86.992C776.427 89.872 772.779 91.312 768.555 91.312C765.675 91.312 762.411 90.64 758.763 89.296C758.187 89.104 756.843 88.72 754.731 88.144C752.811 87.568 750.699 87.28 748.395 87.28C743.403 87.28 738.603 88.816 733.995 91.888C729.387 94.96 725.547 99.664 722.475 106C719.595 112.144 718.155 119.536 718.155 128.176V196.432C718.155 201.424 716.523 205.648 713.259 209.104C709.995 212.368 705.867 214 700.875 214C695.883 214 691.755 212.368 688.491 209.104C685.227 205.648 683.595 201.424 683.595 196.432V77.488C683.595 72.496 685.227 68.368 688.491 65.104C691.755 61.648 695.883 59.92 700.875 59.92C705.867 59.92 709.995 61.648 713.259 65.104C716.523 68.368 718.155 72.496 718.155 77.488V81.232C722.571 73.36 728.907 67.408 737.163 63.376C745.419 59.152 754.251 57.04 763.659 57.04ZM897.75 12.4C915.798 12.4 931.254 16.912 944.118 25.936C957.174 34.768 967.062 46.864 973.782 62.224C980.694 77.392 984.15 94.384 984.15 113.2C984.15 132.016 980.694 149.104 973.782 164.464C967.062 179.632 957.174 191.728 944.118 200.752C931.254 209.584 915.798 214 897.75 214H828.918C823.926 214 819.702 212.368 816.246 209.104C812.982 205.648 811.35 201.424 811.35 196.432V29.968C811.35 24.976 812.982 20.848 816.246 17.584C819.702 14.128 823.926 12.4 828.918 12.4H897.75ZM894.87 180.88C912.15 180.88 925.11 174.544 933.75 161.872C942.39 149.008 946.71 132.784 946.71 113.2C946.71 93.616 942.294 77.488 933.462 64.816C924.822 51.952 911.958 45.52 894.87 45.52H847.35V180.88H894.87ZM1139.05 57.04C1144.04 57.04 1148.17 58.672 1151.43 61.936C1154.7 65.2 1156.33 69.424 1156.33 74.608V196.432C1156.33 201.424 1154.7 205.648 1151.43 209.104C1148.17 212.368 1144.04 214 1139.05 214C1134.06 214 1129.93 212.368 1126.67 209.104C1123.59 205.84 1121.96 201.712 1121.77 196.72C1116.97 202.288 1110.44 207.088 1102.19 211.12C1094.12 214.96 1085.58 216.88 1076.55 216.88C1063.31 216.88 1051.31 213.52 1040.55 206.8C1029.8 199.888 1021.26 190.384 1014.92 178.288C1008.78 166.192 1005.71 152.464 1005.71 137.104C1005.71 121.744 1008.78 108.016 1014.92 95.92C1021.07 83.632 1029.42 74.128 1039.98 67.408C1050.73 60.496 1062.54 57.04 1075.4 57.04C1084.62 57.04 1093.26 58.768 1101.32 62.224C1109.39 65.488 1116.2 69.712 1121.77 74.896V74.608C1121.77 69.616 1123.4 65.488 1126.67 62.224C1129.93 58.768 1134.06 57.04 1139.05 57.04ZM1080.87 185.2C1093.35 185.2 1103.53 180.688 1111.4 171.664C1119.27 162.448 1123.21 150.928 1123.21 137.104C1123.21 123.28 1119.27 111.76 1111.4 102.544C1103.53 93.328 1093.35 88.72 1080.87 88.72C1068.59 88.72 1058.51 93.328 1050.63 102.544C1042.76 111.76 1038.83 123.28 1038.83 137.104C1038.83 150.928 1042.67 162.448 1050.35 171.664C1058.22 180.688 1068.39 185.2 1080.87 185.2ZM1273.85 57.04C1279.61 57.04 1284.41 58.672 1288.25 61.936C1292.28 65.2 1294.29 69.04 1294.29 73.456C1294.29 79.408 1292.76 83.92 1289.69 86.992C1286.61 89.872 1282.97 91.312 1278.74 91.312C1275.86 91.312 1272.6 90.64 1268.95 89.296C1268.37 89.104 1267.03 88.72 1264.92 88.144C1263 87.568 1260.89 87.28 1258.58 87.28C1253.59 87.28 1248.79 88.816 1244.18 91.888C1239.57 94.96 1235.73 99.664 1232.66 106C1229.78 112.144 1228.34 119.536 1228.34 128.176V196.432C1228.34 201.424 1226.71 205.648 1223.45 209.104C1220.18 212.368 1216.05 214 1211.06 214C1206.07 214 1201.94 212.368 1198.68 209.104C1195.41 205.648 1193.78 201.424 1193.78 196.432V77.488C1193.78 72.496 1195.41 68.368 1198.68 65.104C1201.94 61.648 1206.07 59.92 1211.06 59.92C1216.05 59.92 1220.18 61.648 1223.45 65.104C1226.71 68.368 1228.34 72.496 1228.34 77.488V81.232C1232.76 73.36 1239.09 67.408 1247.35 63.376C1255.61 59.152 1264.44 57.04 1273.85 57.04ZM1392.96 181.456C1395.65 181.456 1398.05 182.8 1400.16 185.488C1402.47 187.984 1403.62 191.344 1403.62 195.568C1403.62 200.752 1400.74 205.168 1394.98 208.816C1389.41 212.272 1383.07 214 1375.97 214C1364.07 214 1353.99 211.504 1345.73 206.512C1337.67 201.328 1333.63 190.48 1333.63 173.968V94.48H1320.39C1315.78 94.48 1311.94 92.944 1308.87 89.872C1305.79 86.8 1304.26 82.96 1304.26 78.352C1304.26 73.936 1305.79 70.288 1308.87 67.408C1311.94 64.336 1315.78 62.8 1320.39 62.8H1333.63V44.368C1333.63 39.376 1335.27 35.248 1338.53 31.984C1341.99 28.528 1346.21 26.8 1351.2 26.8C1356 26.8 1360.03 28.528 1363.3 31.984C1366.56 35.248 1368.19 39.376 1368.19 44.368V62.8H1388.64C1393.25 62.8 1397.09 64.336 1400.16 67.408C1403.23 70.48 1404.77 74.32 1404.77 78.928C1404.77 83.344 1403.23 87.088 1400.16 90.16C1397.09 93.04 1393.25 94.48 1388.64 94.48H1368.19V172.528C1368.19 176.56 1369.25 179.536 1371.36 181.456C1373.47 183.184 1376.35 184.048 1380 184.048C1381.54 184.048 1383.65 183.664 1386.34 182.896C1388.64 181.936 1390.85 181.456 1392.96 181.456Z" fill="#F05F00"/>
</svg>
